X:582
M:C
L:1/8
Q:1/4=140
K:B_
e|d<f f>g fg/a/ b>d|c>Bd>B c>BG>e|d<f f>g fg/a/ b>d|c>Be>d c2 B>e|
d<f f>g fg/a/ b>d|c>Bd>B c>B G<B|F>BD>B F>G B<g|f<Be>d c2B||

